src/assets/filled/Previous.svg

<svg width="24" height="24" viewBox="0 0 24 24"  xmlns="http://www.w3.org/2000/svg">
<path d="M20.24 7.22006V16.7901C20.24 18.7501 18.11 19.9801 16.41 19.0001L12.26 16.6101L8.10996 14.2101C6.40996 13.2301 6.40996 10.7801 8.10996 9.80006L12.26 7.40006L16.41 5.01006C18.11 4.03006 20.24 5.25006 20.24 7.22006Z" />
<path d="M3.76001 18.9301C3.35001 18.9301 3.01001 18.5901 3.01001 18.1801V5.82007C3.01001 5.41007 3.35001 5.07007 3.76001 5.07007C4.17001 5.07007 4.51001 5.41007 4.51001 5.82007V18.1801C4.51001 18.5901 4.17001 18.9301 3.76001 18.9301Z" />
</svg>

<?xml version="1.0" encoding="UTF-8"?>
<svg width="24" height="24" viewBox="0 0 24 24" xmlns="http://www.w3.org/2000/svg">
 <path d="m20.24 7.2201v9.57c0 1.96-2.13 3.19-3.83 2.21l-4.15-2.39-4.15-2.4c-1.7-0.98-1.7-3.43 0-4.41l4.15-2.4 4.15-2.39c1.7-0.98 3.83 0.24 3.83 2.21z"/>
 <path d="m3.76 18.93c-0.41 0-0.75-0.34-0.75-0.75v-12.36c0-0.41 0.34-0.75 0.75-0.75s0.75 0.34 0.75 0.75v12.36c0 0.41-0.34 0.75-0.75 0.75z"/>
</svg>
